assets/flags-color/Do.svg

<svg xmlns="http://www.w3.org/2000/svg" viewBox="0 0 512 512"><path fill="#f5f5f5" d="M0 0h512v512H0z"/><g fill="#41479b"><path d="M0 0h202.1v202.1H0zM309.89 309.89h202.1v202.1h-202.1z"/></g><g fill="#ff4b55"><path d="M309.89 0h202.1v202.1h-202.1zM0 309.89h202.1v202.1H0z"/></g><g fill="#64b496"><path d="M248.264 294.419s8.05 2.947 7 13.053l3.254-.06s-2.053-11.678-3.75-13.078c-1.696-1.4-6.504.085-6.504.085z"/><path d="M256.334 292.859c-3.413 0-9.383-.004-15.658-1.699 1.399-1.457 3.332-4.389 3.332-9.504 0-8.01-5.519-2.9-5.519-2.9s-3.63 3.053-1.435 11.219a31.712 31.712 0 01-6.288-3.218c1.26-1.581 3.771-5.267 5.232-11.108 0 0-9.197-1.818-11.713 5.107-1.541-1.956-2.86-4.155-3.961-6.589 2.364.029 5.662-1.531 5.662-10.533 0 0-6.006.009-7.612 5.22-.631-2.177-1.113-4.511-1.467-6.978 2.398.696 8.598 1.195 8.598-12.259 0 0-7.444.013-9.168 6.607a80.37 80.37 0 01-.114-5.228c3.614-1.889 8.604-6.052 8.084-14.592 0 0-3.433.778-6.579 3.417.62-3.237.363-7.977-4.601-11.931 0 0-4.563 8.074 2.101 14.629a13.633 13.633 0 00-1.502 2.774c-1.497-2.28-3.899-4.4-7.765-5.689 0 0-1.781 10.815 8.316 15.339.239 6.316 1.228 11.895 2.924 16.748-2.891-2.549-5.233-6.055-5.233-6.055 0-12.015-9.849-12.318-9.849-12.318-1.839 13.714 8.301 14.269 8.301 14.269l5.553 6.059c-12.015-2.002-12.015 8.01-12.015 8.01 8.01 2.002 12.015-2.002 12.015-2.002l4.332 2.226c-7.683.224-10.339 7.786-10.339 7.786 9.657 1.609 16.717-.659 19.12-1.613 9.726 6.8 21.712 6.809 27.248 6.809v-2.003z"/><path d="M255.652 292.859c3.414 0 9.383-.004 15.658-1.699-1.399-1.457-3.332-4.389-3.332-9.504 0-8.01 5.519-2.9 5.519-2.9s3.63 3.053 1.435 11.219a31.712 31.712 0 006.288-3.218c-1.26-1.581-3.771-5.267-5.232-11.108 0 0 9.197-1.818 11.713 5.107 1.541-1.956 2.86-4.155 3.961-6.589-2.364.029-5.662-1.531-5.662-10.533 0 0 6.006.009 7.612 5.22.631-2.177 1.113-4.511 1.467-6.978-2.398.696-8.598 1.195-8.598-12.259 0 0 7.444.013 9.168 6.607a80.37 80.37 0 00.114-5.228c-3.614-1.889-8.604-6.052-8.084-14.592 0 0 3.433.778 6.58 3.417-.62-3.237-.363-7.977 4.601-11.931 0 0 4.563 8.074-2.101 14.629a13.633 13.633 0 011.502 2.774c1.497-2.28 3.899-4.4 7.765-5.689 0 0 1.781 10.815-8.316 15.339-.239 6.316-1.228 11.895-2.924 16.748 2.891-2.549 5.233-6.055 5.233-6.055 0-12.015 9.849-12.318 9.849-12.318 1.839 13.714-8.301 14.269-8.301 14.269l-5.553 6.059c12.015-2.002 12.015 8.01 12.015 8.01-8.01 2.002-12.015-2.002-12.015-2.002l-4.332 2.226c7.683.224 10.339 7.786 10.339 7.786-9.657 1.609-16.717-.659-19.12-1.613-9.726 6.8-21.712 6.809-27.248 6.809v-2.003h-.001z"/></g><path fill="#41479b" d="M222.211 205.562c-7.042 4.513-13.25 10.26-18.253 17.044l6.447 4.754c4.414-5.987 9.891-11.059 16.104-15.044l-4.298-6.754z"/><path fill="#ff6b71" d="M256.023 257.626h28.034v16.02a8.01 8.01 0 01-8.01 8.01h-12.015c-3.291 0-6.185 1.609-8.01 4.06v-28.09h.001z"/><path fill="#5f64b9" d="M262.03 239.604v-22.027h30.037l-8.01 8.01v22.027H262.03z"/><path fill="#f5f5f5" d="M274.05 247.61h10.01v10.01h-10.01z"/><path fill="#ff6b71" d="M256.023 257.626h-28.035v16.02a8.01 8.01 0 008.01 8.01h12.015c3.291 0 6.185 1.609 8.01 4.06v-28.09z"/><path fill="#f5f5f5" d="M251.016 282.14a10.068 10.068 0 014.96 3.521h.092a10.062 10.062 0 014.96-3.521v-16.503h-10.012v16.503z"/><path fill="#5f64b9" d="M250.015 239.604v-22.027h-30.037l8.01 8.01v22.027h22.027z"/><path fill="#f5f5f5" d="M227.99 247.61H238v10.01h-10.01z"/><path fill="#41479b" d="M238 227.589v6.008l6.008 4.005v-4.005z"/><path fill="#f5f5f5" d="M244.008 233.597v6.007l8.01 4.005v-2.002z"/><path fill="#41479b" d="M274.045 227.589v6.008l-6.008 4.005v-4.005z"/><path fill="#f5f5f5" d="M268.037 233.597v6.007l-8.009 4.005v-2.002z"/><path fill="#ff4b55" d="M268.107 271.644h-24.159c-5.491 0-9.943-4.483-9.943-10.012V230.66l22.17 14.951 21.876-14.951v30.971c-.001 5.53-4.453 10.013-9.944 10.013z"/><g fill="#41479b"><path d="M242.005 235.599l-8.009-6.007v22.027l8.009 4.005zM270.04 235.599l8.01-6.007v22.027l-8.01 4.005zM244.01 255.62h24.03v10.01h-24.03z"/></g><path fill="#ff4b55" d="M244.008 237.602l12.015 6.007 12.014-6.007v18.022h-24.029z"/><g fill="#f5f5f5"><path d="M265.034 239.495v20.134a3.007 3.007 0 01-3.004 3.004h-12.015a3.007 3.007 0 01-3.004-3.004v-20.052l-6.007-4.023v24.075c0 4.969 4.042 9.011 9.011 9.011h12.015c4.969 0 9.011-4.042 9.011-9.011v-24.211l-6.007 4.077z"/><path d="M267.131 253.483c-3.373.303-7.17.643-11.108 2.014-3.938-1.371-7.735-1.711-11.108-2.014-5.644-.507-8.993-1.001-10.91-4.405v5.78c2.943 1.914 6.672 2.266 10.551 2.615 3.482.313 7.081.636 10.758 2.028l.709.268.709-.268c3.677-1.392 7.277-1.715 10.758-2.028 3.882-.349 7.616-.695 10.56-2.611v-5.797c-1.916 3.416-5.267 3.909-10.919 4.418z"/></g><path fill="#ffe15a" d="M260.028 234.598h-3.004v-3.004h-2.003v3.004h-3.003v2.003h3.003v9.011h2.003v-9.011h3.004z"/><path fill="#464655" d="M236.282 226.601l1.1-1.1 17.595 17.597-1.1 1.1z"/><path fill="#ffe15a" d="M233.53 222.756l2.199 4.399 2.2-2.199z"/><path fill="#464655" d="M240.16 223.571l1.256-.916 14.653 20.115-1.257.916z"/><path fill="#ffe15a" d="M238.031 219.342l1.49 4.688 2.514-1.832z"/><path fill="#464655" d="M232.993 230.467l.89-1.274 20.403 14.246-.89 1.275z"/><path fill="#ffe15a" d="M229.61 227.164l2.936 3.947 1.78-2.55z"/><path fill="#464655" d="M258.158 244.209l-1.1-1.1 17.596-17.596 1.1 1.1z"/><path fill="#ffe15a" d="M278.506 222.756l-2.2 4.399-2.199-2.199z"/><path fill="#464655" d="M257.227 243.675l-1.257-.915 14.653-20.115 1.257.916z"/><path fill="#ffe15a" d="M274.004 219.342l-1.49 4.688-2.514-1.832z"/><path fill="#464655" d="M258.651 244.72l-.89-1.274 20.403-14.247.89 1.275z"/><path fill="#ffe15a" d="M282.425 227.164l-2.935 3.947-1.781-2.55z"/><path fill="#f5f5f5" d="M255.006 281.087s-7.744-8.317-6.242-15.951c1.208-6.14 4.873-12.909 7.741-14.556 0 0 4.056-.25 3.039 3.273s-2.255 4.432-1.894 7.904c.625 6.007 1.596 13.129-2.644 19.33z"/><path fill="#41479b" d="M257.356 250.622c-.484-.064-.852-.043-.852-.043-2.868 1.648-6.533 8.416-7.741 14.556-.683 3.473.55 7.08 2.095 9.988-.977-12.589 2.698-17.055 6.498-24.501z"/><path fill="#ff4b55" d="M257.65 261.757c-.362-3.472.876-4.38 1.894-7.904.712-2.466-1.058-3.082-2.187-3.231 0 0-2.585 5.94-2.752 9.924-.147 3.506.751 17.772.402 20.54 4.239-6.2 3.268-13.322 2.643-19.329z"/><path fill="#f5f0f0" d="M252.396 253.593a7.04 7.04 0 016.103-1.896l-3.16-10.171a7.041 7.041 0 00-6.103 1.896l3.16 10.171z"/><path fill="#f5f5f5" d="M258.499 251.697a7.04 7.04 0 016.103-1.896l-3.16-10.171a7.041 7.041 0 00-6.103 1.896l3.16 10.171z"/><path fill="#5f64b9" d="M246.874 207.699a60.702 60.702 0 00-31.091 7.74l-3.917-6.987a68.727 68.727 0 0135.193-8.761l-.185 8.008z"/><path fill="#41479b" d="M289.834 205.562c7.042 4.513 13.25 10.26 18.253 17.044l-6.447 4.754c-4.414-5.987-9.891-11.059-16.104-15.044l4.298-6.754z"/><path fill="#5f64b9" d="M265.171 207.699a60.702 60.702 0 0131.091 7.74l3.917-6.987a68.727 68.727 0 00-35.193-8.761l.185 8.008z"/><path fill="#41479b" d="M272.042 205.562a60.707 60.707 0 00-32.039 0l-2.114-7.726a68.731 68.731 0 0136.267 0l-2.114 7.726z"/><g fill="#ff6b71"><path d="M229.186 295.312a145.282 145.282 0 00-25.227 9.135l3.414 7.246a137.19 137.19 0 0124.36-8.765l-2.547-7.616zM282.86 295.312a145.282 145.282 0 0125.227 9.135l-3.414 7.246a137.19 137.19 0 00-24.36-8.765l2.547-7.616z"/></g><g fill="#ff4b55"><path d="M288.235 301.508a137.25 137.25 0 00-64.079 0l-1.87-7.789a145.264 145.264 0 0167.819 0l-1.87 7.789z"/><path d="M256.023 303.683l-5.522 1.38a2.002 2.002 0 01-2.488-1.943v-2.88a2.002 2.002 0 012.488-1.943l5.522 1.38v4.006zM256.023 299.678l5.522-1.38a2.002 2.002 0 012.488 1.943v2.88a2.002 2.002 0 01-2.488 1.943l-5.522-1.38v-4.006z"/></g><path fill="#ff6b71" d="M256.452 303.683h-.859a1.573 1.573 0 01-1.573-1.573v-.859c0-.869.704-1.573 1.573-1.573h.859c.869 0 1.573.704 1.573 1.573v.859c0 .869-.704 1.573-1.573 1.573z"/></svg>

<svg xmlns="http://www.w3.org/2000/svg" x="0" y="0" enable-background="new 0 0 512 512" version="1.1" viewBox="0 0 512 512" xml:space="preserve"><path fill="#F5F5F5" d="M0 0H512V512H0z"/><g fill="#41479B"><path d="M0 0H202.1V202.1H0z"/><path d="M309.89 309.89H511.99V511.99H309.89z"/></g><g fill="#FF4B55"><path d="M309.89 0H511.99V202.1H309.89z"/><path d="M0 309.89H202.1V511.99H0z"/></g><g fill="#64B496"><path d="M248.264 294.419s8.05 2.947 7 13.053l3.254-.06s-2.053-11.678-3.75-13.078c-1.696-1.4-6.504.085-6.504.085z"/><path d="M256.334 292.859c-3.413 0-9.383-.004-15.658-1.699 1.399-1.457 3.332-4.389 3.332-9.504 0-8.01-5.519-2.9-5.519-2.9s-3.63 3.053-1.435 11.219a31.712 31.712 0 0 1-6.288-3.218c1.26-1.581 3.771-5.267 5.232-11.108 0 0-9.197-1.818-11.713 5.107-1.541-1.956-2.86-4.155-3.961-6.589 2.364.029 5.662-1.531 5.662-10.533 0 0-6.006.009-7.612 5.22-.631-2.177-1.113-4.511-1.467-6.978 2.398.696 8.598 1.195 8.598-12.259 0 0-7.444.013-9.168 6.607a80.37 80.37 0 0 1-.114-5.228c3.614-1.889 8.604-6.052 8.084-14.592 0 0-3.433.778-6.579 3.417.62-3.237.363-7.977-4.601-11.931 0 0-4.563 8.074 2.101 14.629a13.633 13.633 0 0 0-1.502 2.774c-1.497-2.28-3.899-4.4-7.765-5.689 0 0-1.781 10.815 8.316 15.339.239 6.316 1.228 11.895 2.924 16.748-2.891-2.549-5.233-6.055-5.233-6.055 0-12.015-9.849-12.318-9.849-12.318-1.839 13.714 8.301 14.269 8.301 14.269l5.553 6.059c-12.015-2.002-12.015 8.01-12.015 8.01 8.01 2.002 12.015-2.002 12.015-2.002l4.332 2.226c-7.683.224-10.339 7.786-10.339 7.786 9.657 1.609 16.717-.659 19.12-1.613 9.726 6.8 21.712 6.809 27.248 6.809v-2.003z"/><path d="M255.652 292.859c3.414 0 9.383-.004 15.658-1.699-1.399-1.457-3.332-4.389-3.332-9.504 0-8.01 5.519-2.9 5.519-2.9s3.63 3.053 1.435 11.219a31.712 31.712 0 0 0 6.288-3.218c-1.26-1.581-3.771-5.267-5.232-11.108 0 0 9.197-1.818 11.713 5.107 1.541-1.956 2.86-4.155 3.961-6.589-2.364.029-5.662-1.531-5.662-10.533 0 0 6.006.009 7.612 5.22.631-2.177 1.113-4.511 1.467-6.978-2.398.696-8.598 1.195-8.598-12.259 0 0 7.444.013 9.168 6.607a80.37 80.37 0 0 0 .114-5.228c-3.614-1.889-8.604-6.052-8.084-14.592 0 0 3.433.778 6.58 3.417-.62-3.237-.363-7.977 4.601-11.931 0 0 4.563 8.074-2.101 14.629a13.633 13.633 0 0 1 1.502 2.774c1.497-2.28 3.899-4.4 7.765-5.689 0 0 1.781 10.815-8.316 15.339-.239 6.316-1.228 11.895-2.924 16.748 2.891-2.549 5.233-6.055 5.233-6.055 0-12.015 9.849-12.318 9.849-12.318 1.839 13.714-8.301 14.269-8.301 14.269l-5.553 6.059c12.015-2.002 12.015 8.01 12.015 8.01-8.01 2.002-12.015-2.002-12.015-2.002l-4.332 2.226c7.683.224 10.339 7.786 10.339 7.786-9.657 1.609-16.717-.659-19.12-1.613-9.726 6.8-21.712 6.809-27.248 6.809v-2.003h-.001z"/></g><path fill="#41479B" d="M222.211 205.562c-7.042 4.513-13.25 10.26-18.253 17.044l6.447 4.754c4.414-5.987 9.891-11.059 16.104-15.044l-4.298-6.754z"/><path fill="#FF6B71" d="M256.023 257.626h28.034v16.02a8.01 8.01 0 0 1-8.01 8.01h-12.015c-3.291 0-6.185 1.609-8.01 4.06v-28.09h.001z"/><path fill="#5F64B9" d="M262.03 239.604 262.03 217.577 292.067 217.577 284.057 225.587 284.057 247.614 262.03 247.614z"/><path fill="#F5F5F5" d="M274.05 247.61H284.06V257.62H274.05z"/><path fill="#FF6B71" d="M256.023 257.626h-28.035v16.02a8.01 8.01 0 0 0 8.01 8.01h12.015c3.291 0 6.185 1.609 8.01 4.06v-28.09z"/><path fill="#F5F5F5" d="M251.016 282.14a10.068 10.068 0 0 1 4.96 3.521h.092a10.062 10.062 0 0 1 4.96-3.521v-16.503h-10.012v16.503z"/><path fill="#5F64B9" d="M250.015 239.604 250.015 217.577 219.978 217.577 227.988 225.587 227.988 247.614 250.015 247.614z"/><path fill="#F5F5F5" d="M227.99 247.61H238V257.62H227.99z"/><path fill="#41479B" d="M238 227.589 238 233.597 244.008 237.602 244.008 233.597z"/><path fill="#F5F5F5" d="M244.008 233.597 244.008 239.604 252.018 243.609 252.018 241.607z"/><path fill="#41479B" d="M274.045 227.589 274.045 233.597 268.037 237.602 268.037 233.597z"/><path fill="#F5F5F5" d="M268.037 233.597 268.037 239.604 260.028 243.609 260.028 241.607z"/><path fill="#FF4B55" d="M268.107 271.644h-24.159c-5.491 0-9.943-4.483-9.943-10.012V230.66l22.17 14.951 21.876-14.951v30.971c-.001 5.53-4.453 10.013-9.944 10.013z"/><g fill="#41479B"><path d="M242.005 235.599 233.996 229.592 233.996 251.619 242.005 255.624z"/><path d="M270.04 235.599 278.05 229.592 278.05 251.619 270.04 255.624z"/><path d="M244.01 255.62H268.03999999999996V265.63H244.01z"/></g><path fill="#FF4B55" d="M244.008 237.602 256.023 243.609 268.037 237.602 268.037 255.624 244.008 255.624z"/><g fill="#F5F5F5"><path d="M265.034 239.495v20.134a3.007 3.007 0 0 1-3.004 3.004h-12.015a3.007 3.007 0 0 1-3.004-3.004v-20.052l-6.007-4.023v24.075c0 4.969 4.042 9.011 9.011 9.011h12.015c4.969 0 9.011-4.042 9.011-9.011v-24.211l-6.007 4.077z"/><path d="M267.131 253.483c-3.373.303-7.17.643-11.108 2.014-3.938-1.371-7.735-1.711-11.108-2.014-5.644-.507-8.993-1.001-10.91-4.405v5.78c2.943 1.914 6.672 2.266 10.551 2.615 3.482.313 7.081.636 10.758 2.028l.709.268.709-.268c3.677-1.392 7.277-1.715 10.758-2.028 3.882-.349 7.616-.695 10.56-2.611v-5.797c-1.916 3.416-5.267 3.909-10.919 4.418z"/></g><path fill="#FFE15A" d="M260.028 234.598 257.024 234.598 257.024 231.594 255.021 231.594 255.021 234.598 252.018 234.598 252.018 236.601 255.021 236.601 255.021 245.612 257.024 245.612 257.024 236.601 260.028 236.601z"/><path fill="#464655" d="M244.855 222.407H246.41V247.292H244.855z" transform="rotate(-45.001 245.631 234.853)"/><path fill="#FFE15A" d="M233.53 222.756 235.729 227.155 237.929 224.956z"/><path fill="#464655" d="M247.331 220.727H248.886V245.612H247.331z" transform="rotate(-36.07 248.113 233.162)"/><path fill="#FFE15A" d="M238.031 219.342 239.521 224.03 242.035 222.198z"/><path fill="#464655" d="M242.863 224.511H244.418V249.396H242.863z" transform="rotate(-55.075 243.64 236.954)"/><path fill="#FFE15A" d="M229.61 227.164 232.546 231.111 234.326 228.561z"/><path fill="#464655" d="M265.628 222.416H267.183V247.301H265.628z" transform="rotate(-134.999 266.406 234.86)"/><path fill="#FFE15A" d="M278.506 222.756 276.306 227.155 274.107 224.956z"/><path fill="#464655" d="M263.149 220.723H264.704V245.608H263.149z" transform="rotate(-143.93 263.925 233.163)"/><path fill="#FFE15A" d="M274.004 219.342 272.514 224.03 270 222.198z"/><path fill="#464655" d="M267.63 224.516H269.185V249.40099999999998H267.63z" transform="rotate(-124.925 268.408 236.96)"/><path fill="#FFE15A" d="M282.425 227.164 279.49 231.111 277.709 228.561z"/><path fill="#F5F5F5" d="M255.006 281.087s-7.744-8.317-6.242-15.951c1.208-6.14 4.873-12.909 7.741-14.556 0 0 4.056-.25 3.039 3.273s-2.255 4.432-1.894 7.904c.625 6.007 1.596 13.129-2.644 19.33z"/><path fill="#41479B" d="M257.356 250.622c-.484-.064-.852-.043-.852-.043-2.868 1.648-6.533 8.416-7.741 14.556-.683 3.473.55 7.08 2.095 9.988-.977-12.589 2.698-17.055 6.498-24.501z"/><path fill="#FF4B55" d="M257.65 261.757c-.362-3.472.876-4.38 1.894-7.904.712-2.466-1.058-3.082-2.187-3.231 0 0-2.585 5.94-2.752 9.924-.147 3.506.751 17.772.402 20.54 4.239-6.2 3.268-13.322 2.643-19.329z"/><path fill="#F5F0F0" d="M252.396 253.593a7.04 7.04 0 0 1 6.103-1.896l-3.16-10.171a7.041 7.041 0 0 0-6.103 1.896l3.16 10.171z"/><path fill="#F5F5F5" d="M258.499 251.697a7.04 7.04 0 0 1 6.103-1.896l-3.16-10.171a7.041 7.041 0 0 0-6.103 1.896l3.16 10.171z"/><path fill="#5F64B9" d="M246.874 207.699a60.702 60.702 0 0 0-31.091 7.74l-3.917-6.987a68.727 68.727 0 0 1 35.193-8.761l-.185 8.008z"/><path fill="#41479B" d="M289.834 205.562c7.042 4.513 13.25 10.26 18.253 17.044l-6.447 4.754c-4.414-5.987-9.891-11.059-16.104-15.044l4.298-6.754z"/><path fill="#5F64B9" d="M265.171 207.699a60.702 60.702 0 0 1 31.091 7.74l3.917-6.987a68.727 68.727 0 0 0-35.193-8.761l.185 8.008z"/><path fill="#41479B" d="M272.042 205.562a60.707 60.707 0 0 0-32.039 0l-2.114-7.726a68.731 68.731 0 0 1 36.267 0l-2.114 7.726z"/><g fill="#FF6B71"><path d="M229.186 295.312a145.282 145.282 0 0 0-25.227 9.135l3.414 7.246a137.19 137.19 0 0 1 24.36-8.765l-2.547-7.616zM282.86 295.312a145.282 145.282 0 0 1 25.227 9.135l-3.414 7.246a137.19 137.19 0 0 0-24.36-8.765l2.547-7.616z"/></g><g fill="#FF4B55"><path d="M288.235 301.508a137.25 137.25 0 0 0-64.079 0l-1.87-7.789a145.264 145.264 0 0 1 67.819 0l-1.87 7.789z"/><path d="m256.023 303.683-5.522 1.38a2.002 2.002 0 0 1-2.488-1.943v-2.88a2.002 2.002 0 0 1 2.488-1.943l5.522 1.38v4.006zM256.023 299.678l5.522-1.38a2.002 2.002 0 0 1 2.488 1.943v2.88a2.002 2.002 0 0 1-2.488 1.943l-5.522-1.38v-4.006z"/></g><path fill="#FF6B71" d="M256.452 303.683h-.859a1.573 1.573 0 0 1-1.573-1.573v-.859c0-.869.704-1.573 1.573-1.573h.859c.869 0 1.573.704 1.573 1.573v.859c0 .869-.704 1.573-1.573 1.573z"/></svg>
